src/icons/svgs/24/sort-right.svg

<svg width="24" height="24" viewBox="0 0 24 24" fill="none" xmlns="http://www.w3.org/2000/svg">
<path d="M8 17.7243L8 7.25669C8 5.25581 10.2404 4.24106 11.5443 5.6665L16.3911 10.9186C17.203 11.793 17.203 13.2246 16.3911 14.1046L11.5443 19.3614C10.2417 20.7282 8 19.7707 8 17.7243ZM14.9241 12.4675L10.0772 7.21069L10.0772 17.7243L14.9241 12.4675Z" fill="black"/>
</svg>

<svg width="24" height="24" viewBox="0 0 24 24" xmlns="http://www.w3.org/2000/svg">
    <path d="M8 17.724V7.257c0-2.001 2.24-3.016 3.544-1.59l4.847 5.252c.812.874.812 2.306 0 3.186l-4.847 5.256C10.242 20.728 8 19.771 8 17.724Zm6.924-5.257-4.847-5.256v10.513l4.847-5.257Z"/>
</svg>
